X:0383
T:Quick March East York Militia.
M:6/8
L:1/8
Q:3/8=88
I: :: || || DC
P:ABA
N:Aird uses a da capo but prints the last bar as A2B cBA||
Z:Jack Campin * www.campin.me.uk * 2009
K:G
P:A
 A    | BAB     cAF| G2G     G2 G    |BAB cAF|G2G G2
 A    |(B/c/dd) d2d|(e/f/gg) g2 e    |ded dcB|A2B cBA|
        BAB     cAF| G2G     G2 A    |BAB cAF|G2G G2
 A    | Bcd     ddd| efg     gge     |dBd cBA|G2G G2:|
P:B
(B/c/)|ded     dcB| c3      A2(A/B/)|cdc cBA|B3  G2
 B/c/ |ded     dcB| gag     g2 e    |ded dcB|A2B cBc||
       ded     dcB| c3      A2A/B/  |cdc cBA|B3  G2
 B/c/ |ded     dcB| gbg     g2 e    |ded dcB|A2B cB ||
<end>
<start>
